src/icons/file-audio.svg

<svg width="16" height="16" viewBox="0 0 16 16" fill="none" xmlns="http://www.w3.org/2000/svg">
<path fill-rule="evenodd" clip-rule="evenodd" d="M2.77248 3.36502C2.5 3.8998 2.5 4.59987 2.5 6V11C2.5 12.4001 2.5 13.1002 2.77248 13.635C3.01217 14.1054 3.39462 14.4878 3.86502 14.7275C4.3998 15 5.09987 15 6.5 15H10C11.4001 15 12.1002 15 12.635 14.7275C13.1054 14.4878 13.4878 14.1054 13.7275 13.635C14 13.1002 14 12.4001 14 11V7.32548C14 6.8363 14 6.59171 13.9447 6.36154C13.8957 6.15746 13.8149 5.96237 13.7053 5.78343C13.5816 5.5816 13.4086 5.40865 13.0627 5.06274L10.9373 2.93726C10.5914 2.59135 10.4184 2.4184 10.2166 2.29472C10.0376 2.18506 9.84254 2.10425 9.63846 2.05526C9.40829 2 9.1637 2 8.67452 2H6.5C5.09987 2 4.3998 2 3.86502 2.27248C3.39462 2.51217 3.01217 2.89462 2.77248 3.36502ZM7 11V8.5L10 7.5V10H9.5C8.94772 10 8.5 10.4477 8.5 11C8.5 11.5523 8.94772 12 9.5 12H9.75C10.4404 12 11 11.4404 11 10.75V10V5.68163C11 5.28577 11 5.08784 10.9167 4.96225C10.8439 4.85243 10.7307 4.77578 10.6017 4.74897C10.4542 4.71832 10.2704 4.79183 9.90289 4.93884L6.50289 6.29884C6.32131 6.37147 6.23053 6.40779 6.16375 6.46847C6.10474 6.52209 6.05941 6.58904 6.03154 6.66374C6 6.74828 6 6.84606 6 7.04163V11H5.5C4.94772 11 4.5 11.4477 4.5 12C4.5 12.5523 4.94772 13 5.5 13H5.75C6.44036 13 7 12.4404 7 11.75V11Z" fill="#F1667F"/>
</svg>

<svg xmlns="http://www.w3.org/2000/svg" width="16" height="16" fill="none"><path fill="#F1667F" fill-rule="evenodd" d="M2.772 3.365C2.5 3.9 2.5 4.6 2.5 6v5c0 1.4 0 2.1.272 2.635a2.5 2.5 0 0 0 1.093 1.092C4.4 15 5.1 15 6.5 15H10c1.4 0 2.1 0 2.635-.273a2.5 2.5 0 0 0 1.092-1.092C14 13.1 14 12.4 14 11V7.325c0-.489 0-.733-.055-.963q-.075-.309-.24-.579c-.123-.201-.296-.374-.642-.72l-2.126-2.126c-.346-.346-.519-.519-.72-.642a2 2 0 0 0-.579-.24C9.408 2 9.164 2 8.675 2H6.5c-1.4 0-2.1 0-2.635.272a2.5 2.5 0 0 0-1.093 1.093M7 11V8.5l3-1V10h-.5a1 1 0 1 0 0 2h.25c.69 0 1.25-.56 1.25-1.25V5.682c0-.396 0-.594-.083-.72a.5.5 0 0 0-.315-.213c-.148-.03-.332.043-.7.19l-3.4 1.36c-.18.072-.271.109-.338.17a.5.5 0 0 0-.132.195C6 6.748 6 6.846 6 7.042V11h-.5a1 1 0 1 0 0 2h.25C6.44 13 7 12.44 7 11.75z" clip-rule="evenodd"/></svg>
